!!!OTL: Heimkehr des Ehemannes Der Pattlar shitzet af'n Ovnpankhlein,
!!!ARE: Europa, Suedosteuropa, Jugoslavija, Gottschee, Verdreng
!!!YOR: 1, S. 100
!!    1906 aufgezeichnet
!!!SCT: Q0011C
!!!YEM: Copyright 1995, estate of Helmut Schaffrath.
**kern
*ICvox
*Ivox
*M2/2
*k[f#c#]
*D:
{4A
=1
4d
4d
8d
8d
8e
8e
=2
8d
8d
4B
2A}
=3
{2d
2e
=4
2.f#}
{4d
=5
4f#
4f#
8f#
8f#
8a
8a
=6
8a
8a
4e
2d}
=7
{2f#
2e
=8
8d
8d
8c#
8c#
4d}
==
!!!AGN: Ballade, Ehe, Heimkehr
!! Grundton in der zweigestrichenen Oktave, 2. und 4. Zeile = Refrain
!!    auf sinnfreie Silben.
!!!ONB: ESAC (Essen Associative Code) Database: BALLADE
!!!AMT: simple duple
!!!AIN: vox
!!!EED: Helmut Schaffrath
!!!EEV: 1.0
*-
